kinematics/images/mult1.svg

<svg xmlns="http://www.w3.org/2000/svg" width="201.6" height="195.8" style="width:201.60000610351562px;height:195.8000030517578px;background:0 0;fill:none"><svg xmlns="http://www.w3.org/2000/svg"/><svg xmlns="http://www.w3.org/2000/svg" class="role-diagram-draw-area" style="overflow:visible"><g class="shapes-region" style="stroke:#000;fill:none"><g class="composite-shape" data-amt="diagram/shapes/plot"><g class="test-plot-expression" transform="translate(-182 15.85)"><defs><clipPath id="cp7y7j2w506dg-full-view"><path d="M1 1h355.5v247.35H1z"/></clipPath></defs><g clip-path="url(#cp7y7j2w506dg-full-view)"><path d="M200 149.35h.44l.22-.01h.22l.22-.01h.22l.22-.01.22-.01.23-.01.22-.01.22-.01.22-.02.22-.01.22-.02.22-.02.22-.02.22-.02.22-.02.22-.02.22-.02.22-.03.22-.02.22-.03.22-.03.22-.03.23-.03.22-.03.22-.04.22-.03.22-.04.22-.03.22-.04.22-.04.22-.04.22-.05.22-.04.22-.04.22-.05.22-.05.22-.04.22-.05.22-.05.23-.05.22-.06.22-.05.22-.06.22-.05.22-.06.22-.06.22-.06.22-.06.22-.06.22-.07.22-.06.22-.07.22-.07.22-.07.22-.07.22-.07.23-.07.22-.07.22-.08.22-.07.22-.08.22-.08.22-.08.22-.08.22-.08.22-.09.22-.08.22-.09.22-.08.22-.09.22-.09.22-.09.22-.09.23-.1.22-.09.22-.1.22-.09.22-.1.22-.1.22-.1.22-.1.22-.1.22-.11.22-.1.22-.11.22-.11.22-.11.22-.11.22-.11.22-.11.23-.11.22-.12.22-.12.22-.11.22-.12.22-.12.22-.12.22-.12.22-.13.22-.12.22-.13.22-.13.22-.12.22-.13.22-.13.22-.14.22-.13.23-.13.22-.14.22-.14.22-.13.22-.14.22-.14.22-.15.22-.14.22-.14.22-.15.22-.15.22-.14.22-.15.22-.15.22-.15.22-.16.22-.15.23-.16.22-.15.22-.16.22-.16.22-.16.22-.16.22-.16.22-.17.22-.16.22-.17.22-.16.22-.17.22-.17.22-.17.22-.17.22-.18.22-.17.23-.18.22-.18.22-.17.22-.18.22-.18.22-.19.22-.18.22-.18.22-.19.22-.19.22-.18.22-.19.22-.19.22-.19.22-.2.22-.19.22-.2.23-.19.22-.2.22-.2.22-.2.22-.2.22-.2.22-.21.22-.2.22-.21.22-.21.22-.2.22-.21.22-.22.22-.21.22-.21.22-.22.22-.21.23-.22.22-.22.22-.22.22-.22.22-.22.22-.22.22-.23.22-.22.22-.23.22-.23.22-.23.22-.23.22-.23.22-.23.22-.24.22-.23.22-.24.23-.24.22-.24.22-.24.22-.24.22-.24.22-.24.22-.25.22-.24.22-.25.22-.25.22-.25.22-.25.22-.25.22-.26.22-.25.22-.26.22-.26.23-.26.22-.25.22-.27.22-.26.22-.26.22-.27.22-.26.22-.27.22-.27.22-.27.22-.27.22-.27.22-.27.22-.28.22-.27.22-.28.22-.28.23-.28.22-.28.22-.28.22-.28.22-.28.22-.29.22-.29.22-.28.22-.29.22-.29.22-.29.22-.3.22-.29.22-.3.22-.29.22-.3.22-.3.23-.3.22-.3.22-.3.22-.3.22-.31.22-.31.22-.3.22-.31.22-.31.22-.31.22-.31.22-.32.22-.31.22-.32.22-.31.22-.32.22-.32.23-.32.22-.32.22-.33.22-.32.22-.33.22-.32.22-.33.22-.33.22-.33.22-.33.22-.33.22-.34.22-.33.22-.34.22-.34.22-.34.22-.34.23-.34.22-.34.22-.34.22-.35.22-.34.22-.35.22-.35.22-.35.22-.35.22-.35.22-.36.22-.35.22-.36.22-.35.22-.36.22-.36.22-.36.23-.36.22-.37.22-.36.22-.37.22-.36.22-.37.22-.37.22-.37.22-.37.22-.38.22-.37.22-.38.22-.37.22-.38.22-.38.22-.38.22-.38.23-.38.22-.39.22-.38.22-.39.22-.39.22-.38.22-.39.22-.39.22-.4.22-.39.22-.4.22-.39.22-.4.22-.4.22-.4.22-.4.22-.4.23-.4.22-.41.22-.4.22-.41.22-.41.22-.41.22-.41.22-.41.22-.41.22-.42.22-.41.22-.42.22-.42.22-.42.22-.42.22-.42.22-.42.23-.42.22-.43.22-.43.22-.42.22-.43.22-.43.22-.43.22-.44.22-.43.22-.43.22-.44.22-.44.22-.44.22-.44.22-.44.22-.44.22-.44.23-.45.22-.44.22-.45.22-.45.22-.45.22-.45.22-.45.22-.45.22-.46.22-.45.22-.46.22-.46.22-.46.22-.46.22-.46.22-.46.22-.47.23-.46.22-.47.22-.47.22-.47.22-.47.22-.47.22-.47.22-.47.22-.48.22-.47.22-.48.22-.48.22-.48.22-.48.22-.48.22-.49.22-.48.23-.49.22-.49.22-.48.22-.49.22-.49.22-.5.22-.49.22-.49.22-.5.22-.5.22-.5.22-.49.22-.51.22-.5.22-.5.22-.5.22-.51.23-.51.22-.5.22-.51.22-.51.22-.51.22-.52.22-.51.22-.52.22-.51.22-.52.22-.52.22-.52.22-.52.22-.52.22-.53.22-.52.22-.53.23-.53.22-.52.22-.53.22-.53.22-.54.22-.53.22-.54.22-.53.22-.54.22-.54.22-.54.22-.54.22-.54.22-.54.22-.55.22-.54.22-.55.23-.55.22-.55.22-.55.22-.55.22-.55.22-.55.22-.56.22-.56.22-.55.22-.56.22-.56.22-.57.22-.56.22-.56.22-.57.22-.56.22-.57.23-.57.22-.57.22-.57.22-.57.22-.58.22-.57.22-.58.22-.57.22-.58.22-.58.22-.58.22-.59.22-.58.22-.58.22-.59.22-.59.22-.58.23-.59.22-.59.22-.6.22-.59.22-.59.22-.6.22-.6.22-.59.22-.6.22-.6.22-.6.22-.61.22-.6.22-.61.22-.6.22-.61.22-.61.23-.61.22-.61.22-.61.22-.62.22-.61.22-.62.22-.61.22-.62.22-.62.22-.62.22-.63.22-.62.22-.62.22-.63.22-.63.22-.63.22-.63.23-.63.22-.63.22-.63.22-.64.22-.63.22-.64.22-.64.22-.64.22-.64.22-.64.22-.64.22-.64.22-.65.22-.65.22-.64.22-.65.22-.65.23-.65.22-.66.22-.65.22-.66.22-.65.22-.66.22-.66.22-.66.22-.66.22-.66.22-.67.22-.66.22-.67.22-.66.22-.67.22-.67.22-.67.23-.68.22-.67.22-.67.22-.68.22-.68.22-.67.22-.68.22-.68.22-.69.22-.68.22-.68.22-.69.22-.69.22-.68.22-.69.22-.69.22-.69.23-.7.22-.69.22-.7.22-.69.22-.7.22-.7.22-.7.22-.7.22-.7.22-.71.22-.7.22-.71.22-.71.22-.7.22-.71.22-.71.22-.72.23-.71.22-.72.22-.71.22-.72.22-.72.22-.72.22-.72.22-.72.22-.72.22-.73.22-.72.22-.73.22-.73.22-.73.22-.73.22-.73.22-.73.23-.74.22-.73.22-.74.22-.74.22-.73.22-.74.22-.75.22-.74.22-.74.22-.75.22-.74.22-.75.22-.75.22-.75.22-.75.22-.75.22-.76.23-.75.22-.76.22-.76.22-.75.22-.76.22-.76.22-.77.22-.76.22-.76.22-.77.22-.77.22-.77.22-.76.22-.78.22-.77.22-.77.22-.77.23-.78.22-.78.22-.77.22-.78.22-.78.22-.79.22-.78.22-.78.22-.79.22-.78.22-.79.22-.79.22-.79.22-.79.22-.8.22-.79.22-.79.23-.8.22-.8.22-.8.22-.8.22-.8.22-.8.22-.8.22-.81.22-.8.22-.81.22-.81.22-.81.22-.81.22-.81.22-.81.22-.82.22-.81.23-.82.22-.82.22-.82.22-.82.22-.82.22-.82.22-.83.22-.82.22-.83.22-.83.22-.83.22-.83.22-.83.22-.83.22-.84.22-.83.22-.84.23-.83.22-.84.22-.84.22-.84.22-.85.22-.84.22-.84.22-.85.22-.85.22-.85.22-.85.22-.85.22-.85.22-.85.22-.86.22-.85.22-.86.23-.86.22-.86.22-.86.22-.86.22-.86.22-.87.22-.86.22-.87.22-.87" style="stroke-width:2;stroke:#900;stroke-opacity:1"/></g></g><path stroke="none" d="M1 1h355.5v247.35H1z" class="real" style="fill:transparent;stroke:none" transform="translate(-182 15.85)"/></g><g class="arrow-line"><path d="M18 166.3v-156m-4.5 124h9m-9-32h9m-9-32h9m-9-32h9" class="connection real" style="stroke:#000;stroke-width:1;fill:none;fill-opacity:1"/><path d="M10.93-3.29Q4.96-.45 0 0q4.96.45 10.93 3.29" style="stroke:#000;stroke-width:1" transform="rotate(90 4.85 13.15)"/></g><g class="arrow-line"><path d="M18 166.3h155m-123-4.5v9m32-9v9m32-9v9m32-9v9" class="connection real" style="stroke:#000;stroke-width:1;fill:none;fill-opacity:1"/><path d="M10.93-3.29Q4.96-.45 0 0q4.96.45 10.93 3.29" style="stroke:#000;stroke-width:1" transform="matrix(-1 0 0 -1 175 166.3)"/></g><g class="arrow-line"><path d="m17.13 134.23 151.7-109.09" class="connection real" style="stroke:#900;stroke-opacity:1;stroke-width:2;fill:none;fill-opacity:1"/><path fill="#900" stroke="none" d="M13.4-6.43 0 0l13.4 6.44L8.9 0Z" style="stroke:none;fill:#900;stroke-width:2" transform="rotate(144.28 82.367 39.124)"/></g><g class="arrow-line"><path d="m124.93 22.23 3.21-10.55" class="connection real" style="stroke:#900;stroke-opacity:1;stroke-width:2;fill:none;fill-opacity:1"/><path fill="#900" stroke="none" d="M13.4-6.43 0 0l13.4 6.44L8.9 0Z" style="stroke:none;fill:#900;stroke-width:2" transform="rotate(106.89 61.74 51.86)"/></g></g></svg><svg xmlns="http://www.w3.org/2000/svg" xmlns:xlink="http://www.w3.org/1999/xlink" width="200" height="194.2" style="width:200px;height:194.1999969482422px;font-family:Asana-Math,Asana;background:0 0"><path fill="#000" stroke="#000" stroke-width=".12" d="M177.085 176.9h1.275v4.14c0 1.845 1.395 2.025 1.935 2.025 1.065 0 1.485-1.065 1.485-2.025v-.855h-.375v.825c0 1.11-.45 1.68-1.005 1.68-1.005 0-1.005-1.365-1.005-1.62v-4.17h2.145v-.465h-2.145v-2.76h-.375c-.015 1.23-.465 2.835-1.935 2.895Zm-152.11-152c.39-.03.855-.045 1.245-.045.435 0 1.065.03 1.425.045v-.465c-.33-.045-.435-.24-.435-.465 0-.33.435-.825 1.35-1.905l1.14 1.5c.12.165.315.405.315.495 0 .135-.135.36-.54.375v.465c.45-.015 1.29-.045 1.62-.045.405 0 .99.015 1.44.045v-.465c-.81 0-1.08-.03-1.425-.465l-2.01-2.595c.45-.57 1.02-1.305 1.38-1.695.465-.54 1.08-.765 1.785-.78v-.465c-.39.03-.84.045-1.23.045-.45 0-1.245-.03-1.44-.045v.465c.315.03.435.225.435.465s-.15.435-.225.525l-.93 1.17-1.17-1.515c-.135-.15-.135-.18-.135-.27 0-.225.225-.36.525-.375v-.465c-.39.015-1.38.045-1.62.045-.315 0-1.02-.015-1.425-.045v.465c1.05 0 1.065.015 1.77.915l1.485 1.935-1.41 1.785a2.4 2.4 0 0 1-1.92.9Z"/></svg></svg>

<svg xmlns="http://www.w3.org/2000/svg" xmlns:xlink="http://www.w3.org/1999/xlink" x="0" y="0" width="201.60000610351562" height="195.8000030517578" style="
        width:201.60000610351562px;
        height:195.8000030517578px;
        background: transparent;
        fill: none;
">
        <svg xmlns="http://www.w3.org/2000/svg"/>
        
        <svg xmlns="http://www.w3.org/2000/svg" class="role-diagram-draw-area" style="overflow: visible;"><g class="shapes-region" style="stroke: black; fill: none;"><g class="composite-shape" data-amt="diagram/shapes/plot" transform="matrix(1,0,0,1,-182.00000000000003,15.849998474121094)"><g><g/><g><g class="test-plot-expression"><defs><clipPath id="cp7y7j2w506dg-full-view"><rect x="1" y="1" width="355.5" height="247.3499984741211"/></clipPath></defs><g clip-path="url(#cp7y7j2w506dg-full-view)"><path d=" M200.00,149.35 L200.22,149.35 L200.44,149.35 L200.66,149.34 L200.88,149.34 L201.10,149.33 L201.32,149.33 L201.54,149.32 L201.76,149.31 L201.99,149.30 L202.21,149.29 L202.43,149.28 L202.65,149.26 L202.87,149.25 L203.09,149.23 L203.31,149.21 L203.53,149.19 L203.75,149.17 L203.97,149.15 L204.19,149.13 L204.41,149.11 L204.63,149.08 L204.85,149.06 L205.07,149.03 L205.29,149.00 L205.51,148.97 L205.74,148.94 L205.96,148.91 L206.18,148.87 L206.40,148.84 L206.62,148.80 L206.84,148.77 L207.06,148.73 L207.28,148.69 L207.50,148.65 L207.72,148.60 L207.94,148.56 L208.16,148.52 L208.38,148.47 L208.60,148.42 L208.82,148.38 L209.04,148.33 L209.26,148.28 L209.49,148.23 L209.71,148.17 L209.93,148.12 L210.15,148.06 L210.37,148.01 L210.59,147.95 L210.81,147.89 L211.03,147.83 L211.25,147.77 L211.47,147.71 L211.69,147.64 L211.91,147.58 L212.13,147.51 L212.35,147.44 L212.57,147.37 L212.79,147.30 L213.01,147.23 L213.24,147.16 L213.46,147.09 L213.68,147.01 L213.90,146.94 L214.12,146.86 L214.34,146.78 L214.56,146.70 L214.78,146.62 L215.00,146.54 L215.22,146.45 L215.44,146.37 L215.66,146.28 L215.88,146.20 L216.10,146.11 L216.32,146.02 L216.54,145.93 L216.76,145.84 L216.99,145.74 L217.21,145.65 L217.43,145.55 L217.65,145.46 L217.87,145.36 L218.09,145.26 L218.31,145.16 L218.53,145.06 L218.75,144.96 L218.97,144.85 L219.19,144.75 L219.41,144.64 L219.63,144.53 L219.85,144.42 L220.07,144.31 L220.29,144.20 L220.51,144.09 L220.74,143.98 L220.96,143.86 L221.18,143.74 L221.40,143.63 L221.62,143.51 L221.84,143.39 L222.06,143.27 L222.28,143.15 L222.50,143.02 L222.72,142.90 L222.94,142.77 L223.16,142.64 L223.38,142.52 L223.60,142.39 L223.82,142.26 L224.04,142.12 L224.26,141.99 L224.49,141.86 L224.71,141.72 L224.93,141.58 L225.15,141.45 L225.37,141.31 L225.59,141.17 L225.81,141.02 L226.03,140.88 L226.25,140.74 L226.47,140.59 L226.69,140.44 L226.91,140.30 L227.13,140.15 L227.35,140.00 L227.57,139.85 L227.79,139.69 L228.01,139.54 L228.24,139.38 L228.46,139.23 L228.68,139.07 L228.90,138.91 L229.12,138.75 L229.34,138.59 L229.56,138.43 L229.78,138.26 L230.00,138.10 L230.22,137.93 L230.44,137.77 L230.66,137.60 L230.88,137.43 L231.10,137.26 L231.32,137.09 L231.54,136.91 L231.76,136.74 L231.99,136.56 L232.21,136.38 L232.43,136.21 L232.65,136.03 L232.87,135.85 L233.09,135.66 L233.31,135.48 L233.53,135.30 L233.75,135.11 L233.97,134.92 L234.19,134.74 L234.41,134.55 L234.63,134.36 L234.85,134.17 L235.07,133.97 L235.29,133.78 L235.51,133.58 L235.74,133.39 L235.96,133.19 L236.18,132.99 L236.40,132.79 L236.62,132.59 L236.84,132.39 L237.06,132.18 L237.28,131.98 L237.50,131.77 L237.72,131.56 L237.94,131.36 L238.16,131.15 L238.38,130.93 L238.60,130.72 L238.82,130.51 L239.04,130.29 L239.26,130.08 L239.49,129.86 L239.71,129.64 L239.93,129.42 L240.15,129.20 L240.37,128.98 L240.59,128.76 L240.81,128.53 L241.03,128.31 L241.25,128.08 L241.47,127.85 L241.69,127.62 L241.91,127.39 L242.13,127.16 L242.35,126.93 L242.57,126.69 L242.79,126.46 L243.01,126.22 L243.24,125.98 L243.46,125.74 L243.68,125.50 L243.90,125.26 L244.12,125.02 L244.34,124.78 L244.56,124.53 L244.78,124.29 L245.00,124.04 L245.22,123.79 L245.44,123.54 L245.66,123.29 L245.88,123.04 L246.10,122.78 L246.32,122.53 L246.54,122.27 L246.76,122.01 L246.99,121.75 L247.21,121.50 L247.43,121.23 L247.65,120.97 L247.87,120.71 L248.09,120.44 L248.31,120.18 L248.53,119.91 L248.75,119.64 L248.97,119.37 L249.19,119.10 L249.41,118.83 L249.63,118.56 L249.85,118.28 L250.07,118.01 L250.29,117.73 L250.51,117.45 L250.74,117.17 L250.96,116.89 L251.18,116.61 L251.40,116.33 L251.62,116.05 L251.84,115.76 L252.06,115.47 L252.28,115.19 L252.50,114.90 L252.72,114.61 L252.94,114.32 L253.16,114.02 L253.38,113.73 L253.60,113.43 L253.82,113.14 L254.04,112.84 L254.26,112.54 L254.49,112.24 L254.71,111.94 L254.93,111.64 L255.15,111.34 L255.37,111.03 L255.59,110.72 L255.81,110.42 L256.03,110.11 L256.25,109.80 L256.47,109.49 L256.69,109.18 L256.91,108.86 L257.13,108.55 L257.35,108.23 L257.57,107.92 L257.79,107.60 L258.01,107.28 L258.24,106.96 L258.46,106.64 L258.68,106.31 L258.90,105.99 L259.12,105.66 L259.34,105.34 L259.56,105.01 L259.78,104.68 L260.00,104.35 L260.22,104.02 L260.44,103.69 L260.66,103.35 L260.88,103.02 L261.10,102.68 L261.32,102.34 L261.54,102.00 L261.76,101.66 L261.99,101.32 L262.21,100.98 L262.43,100.64 L262.65,100.29 L262.87,99.95 L263.09,99.60 L263.31,99.25 L263.53,98.90 L263.75,98.55 L263.97,98.20 L264.19,97.84 L264.41,97.49 L264.63,97.13 L264.85,96.78 L265.07,96.42 L265.29,96.06 L265.51,95.70 L265.74,95.34 L265.96,94.97 L266.18,94.61 L266.40,94.24 L266.62,93.88 L266.84,93.51 L267.06,93.14 L267.28,92.77 L267.50,92.40 L267.72,92.02 L267.94,91.65 L268.16,91.27 L268.38,90.90 L268.60,90.52 L268.82,90.14 L269.04,89.76 L269.26,89.38 L269.49,89.00 L269.71,88.61 L269.93,88.23 L270.15,87.84 L270.37,87.45 L270.59,87.07 L270.81,86.68 L271.03,86.29 L271.25,85.89 L271.47,85.50 L271.69,85.10 L271.91,84.71 L272.13,84.31 L272.35,83.91 L272.57,83.51 L272.79,83.11 L273.01,82.71 L273.24,82.31 L273.46,81.90 L273.68,81.50 L273.90,81.09 L274.12,80.68 L274.34,80.27 L274.56,79.86 L274.78,79.45 L275.00,79.04 L275.22,78.62 L275.44,78.21 L275.66,77.79 L275.88,77.37 L276.10,76.95 L276.32,76.53 L276.54,76.11 L276.76,75.69 L276.99,75.27 L277.21,74.84 L277.43,74.41 L277.65,73.99 L277.87,73.56 L278.09,73.13 L278.31,72.70 L278.53,72.26 L278.75,71.83 L278.97,71.40 L279.19,70.96 L279.41,70.52 L279.63,70.08 L279.85,69.64 L280.07,69.20 L280.29,68.76 L280.51,68.32 L280.74,67.87 L280.96,67.43 L281.18,66.98 L281.40,66.53 L281.62,66.08 L281.84,65.63 L282.06,65.18 L282.28,64.73 L282.50,64.27 L282.72,63.82 L282.94,63.36 L283.16,62.90 L283.38,62.44 L283.60,61.98 L283.82,61.52 L284.04,61.06 L284.26,60.59 L284.49,60.13 L284.71,59.66 L284.93,59.19 L285.15,58.72 L285.37,58.25 L285.59,57.78 L285.81,57.31 L286.03,56.84 L286.25,56.36 L286.47,55.89 L286.69,55.41 L286.91,54.93 L287.13,54.45 L287.35,53.97 L287.57,53.49 L287.79,53.00 L288.01,52.52 L288.24,52.03 L288.46,51.54 L288.68,51.06 L288.90,50.57 L289.12,50.08 L289.34,49.58 L289.56,49.09 L289.78,48.60 L290.00,48.10 L290.22,47.60 L290.44,47.10 L290.66,46.61 L290.88,46.10 L291.10,45.60 L291.32,45.10 L291.54,44.60 L291.76,44.09 L291.99,43.58 L292.21,43.08 L292.43,42.57 L292.65,42.06 L292.87,41.55 L293.09,41.03 L293.31,40.52 L293.53,40.00 L293.75,39.49 L293.97,38.97 L294.19,38.45 L294.41,37.93 L294.63,37.41 L294.85,36.89 L295.07,36.36 L295.29,35.84 L295.51,35.31 L295.74,34.78 L295.96,34.26 L296.18,33.73 L296.40,33.20 L296.62,32.66 L296.84,32.13 L297.06,31.59 L297.28,31.06 L297.50,30.52 L297.72,29.98 L297.94,29.44 L298.16,28.90 L298.38,28.36 L298.60,27.82 L298.82,27.27 L299.04,26.73 L299.26,26.18 L299.49,25.63 L299.71,25.08 L299.93,24.53 L300.15,23.98 L300.37,23.43 L300.59,22.88 L300.81,22.32 L301.03,21.76 L301.25,21.21 L301.47,20.65 L301.69,20.09 L301.91,19.52 L302.13,18.96 L302.35,18.40 L302.57,17.83 L302.79,17.27 L303.01,16.70 L303.24,16.13 L303.46,15.56 L303.68,14.99 L303.90,14.42 L304.12,13.84 L304.34,13.27 L304.56,12.69 L304.78,12.12 L305.00,11.54 L305.22,10.96 L305.44,10.38 L305.66,9.79 L305.88,9.21 L306.10,8.63 L306.32,8.04 L306.54,7.45 L306.76,6.87 L306.99,6.28 L307.21,5.69 L307.43,5.09 L307.65,4.50 L307.87,3.91 L308.09,3.31 L308.31,2.71 L308.53,2.12 L308.75,1.52 L308.97,0.92 L309.19,0.32 L309.41,-0.29 L309.63,-0.89 L309.85,-1.50 L310.07,-2.10 L310.29,-2.71 L310.51,-3.32 L310.74,-3.93 L310.96,-4.54 L311.18,-5.15 L311.40,-5.77 L311.62,-6.38 L311.84,-7.00 L312.06,-7.61 L312.28,-8.23 L312.50,-8.85 L312.72,-9.47 L312.94,-10.10 L313.16,-10.72 L313.38,-11.34 L313.60,-11.97 L313.82,-12.60 L314.04,-13.23 L314.26,-13.86 L314.49,-14.49 L314.71,-15.12 L314.93,-15.75 L315.15,-16.39 L315.37,-17.02 L315.59,-17.66 L315.81,-18.30 L316.03,-18.94 L316.25,-19.58 L316.47,-20.22 L316.69,-20.86 L316.91,-21.50 L317.13,-22.15 L317.35,-22.80 L317.57,-23.44 L317.79,-24.09 L318.01,-24.74 L318.24,-25.39 L318.46,-26.05 L318.68,-26.70 L318.90,-27.36 L319.12,-28.01 L319.34,-28.67 L319.56,-29.33 L319.78,-29.99 L320.00,-30.65 L320.22,-31.31 L320.44,-31.98 L320.66,-32.64 L320.88,-33.31 L321.10,-33.97 L321.32,-34.64 L321.54,-35.31 L321.76,-35.98 L321.99,-36.66 L322.21,-37.33 L322.43,-38.00 L322.65,-38.68 L322.87,-39.36 L323.09,-40.03 L323.31,-40.71 L323.53,-41.39 L323.75,-42.08 L323.97,-42.76 L324.19,-43.44 L324.41,-44.13 L324.63,-44.82 L324.85,-45.50 L325.07,-46.19 L325.29,-46.88 L325.51,-47.57 L325.74,-48.27 L325.96,-48.96 L326.18,-49.66 L326.40,-50.35 L326.62,-51.05 L326.84,-51.75 L327.06,-52.45 L327.28,-53.15 L327.50,-53.85 L327.72,-54.56 L327.94,-55.26 L328.16,-55.97 L328.38,-56.68 L328.60,-57.38 L328.82,-58.09 L329.04,-58.80 L329.26,-59.52 L329.49,-60.23 L329.71,-60.95 L329.93,-61.66 L330.15,-62.38 L330.37,-63.10 L330.59,-63.82 L330.81,-64.54 L331.03,-65.26 L331.25,-65.98 L331.47,-66.71 L331.69,-67.43 L331.91,-68.16 L332.13,-68.89 L332.35,-69.62 L332.57,-70.35 L332.79,-71.08 L333.01,-71.81 L333.24,-72.55 L333.46,-73.28 L333.68,-74.02 L333.90,-74.76 L334.12,-75.49 L334.34,-76.23 L334.56,-76.98 L334.78,-77.72 L335.00,-78.46 L335.22,-79.21 L335.44,-79.95 L335.66,-80.70 L335.88,-81.45 L336.10,-82.20 L336.32,-82.95 L336.54,-83.70 L336.76,-84.46 L336.99,-85.21 L337.21,-85.97 L337.43,-86.73 L337.65,-87.48 L337.87,-88.24 L338.09,-89.00 L338.31,-89.77 L338.53,-90.53 L338.75,-91.29 L338.97,-92.06 L339.19,-92.83 L339.41,-93.60 L339.63,-94.36 L339.85,-95.14 L340.07,-95.91 L340.29,-96.68 L340.51,-97.45 L340.74,-98.23 L340.96,-99.01 L341.18,-99.78 L341.40,-100.56 L341.62,-101.34 L341.84,-102.13 L342.06,-102.91 L342.28,-103.69 L342.50,-104.48 L342.72,-105.26 L342.94,-106.05 L343.16,-106.84 L343.38,-107.63 L343.60,-108.42 L343.82,-109.22 L344.04,-110.01 L344.26,-110.80 L344.49,-111.60 L344.71,-112.40 L344.93,-113.20 L345.15,-114.00 L345.37,-114.80 L345.59,-115.60 L345.81,-116.40 L346.03,-117.21 L346.25,-118.01 L346.47,-118.82 L346.69,-119.63 L346.91,-120.44 L347.13,-121.25 L347.35,-122.06 L347.57,-122.87 L347.79,-123.69 L348.01,-124.50 L348.24,-125.32 L348.46,-126.14 L348.68,-126.96 L348.90,-127.78 L349.12,-128.60 L349.34,-129.42 L349.56,-130.25 L349.78,-131.07 L350.00,-131.90 L350.22,-132.73 L350.44,-133.56 L350.66,-134.39 L350.88,-135.22 L351.10,-136.05 L351.32,-136.89 L351.54,-137.72 L351.76,-138.56 L351.99,-139.39 L352.21,-140.23 L352.43,-141.07 L352.65,-141.91 L352.87,-142.76 L353.09,-143.60 L353.31,-144.44 L353.53,-145.29 L353.75,-146.14 L353.97,-146.99 L354.19,-147.84 L354.41,-148.69 L354.63,-149.54 L354.85,-150.39 L355.07,-151.25 L355.29,-152.10 L355.51,-152.96 L355.74,-153.82 L355.96,-154.68 L356.18,-155.54 L356.40,-156.40 L356.62,-157.26 L356.84,-158.13 L357.06,-158.99 L357.28,-159.86 L357.50,-160.73" style="stroke-width: 2; stroke: rgb(153, 0, 0); stroke-opacity: 1;"/></g></g><rect class="real" x="1" y="1" width="355.5" height="247.3499984741211" style="fill: transparent; stroke: none;"/></g></g></g><g class="arrow-line"><path class="connection real" stroke-dasharray="" d="  M18,166.3 L18,10.3  M13.5,134.3 L22.5,134.3 M13.5,102.3 L22.5,102.3 M13.5,70.3 L22.5,70.3 M13.5,38.3 L22.5,38.3" style="stroke: rgb(0, 0, 0); stroke-width: 1; fill: none; fill-opacity: 1;"/><g stroke="#000" transform="matrix(3.061616997868383e-16,1,-1,3.061616997868383e-16,18,8.300003051757812)" style="stroke: rgb(0, 0, 0); stroke-width: 1;"><path d=" M10.93,-3.29 Q4.96,-0.45 0,0 Q4.96,0.45 10.93,3.29"/></g></g><g class="arrow-line"><path class="connection real" stroke-dasharray="" d="  M18,166.3 L173,166.3  M50,161.8 L50,170.8 M82,161.8 L82,170.8 M114,161.8 L114,170.8 M146,161.8 L146,170.8" style="stroke: rgb(0, 0, 0); stroke-width: 1; fill: none; fill-opacity: 1;"/><g stroke="#000" transform="matrix(-1,1.2246467991473532e-16,-1.2246467991473532e-16,-1,174.99999999999997,166.30000305175784)" style="stroke: rgb(0, 0, 0); stroke-width: 1;"><path d=" M10.93,-3.29 Q4.96,-0.45 0,0 Q4.96,0.45 10.93,3.29"/></g></g><g class="arrow-line"><path class="connection real" stroke-dasharray="" d="  M17.13,134.23 L168.83,25.14" style="stroke: rgb(153, 0, 0); stroke-opacity: 1; stroke-width: 2; fill: none; fill-opacity: 1;"/><g stroke="none" fill="rgb(153,0,0)" fill-opacity="1" transform="matrix(-0.8118797831118004,0.5838246464259075,-0.5838246464259075,-0.8118797831118004,172.07999267578123,22.800003051757812)" style="stroke: none; fill: rgb(153, 0, 0); stroke-width: 2;"><path d=" M13.4,-6.43 L0,0 L13.4,6.44 L8.9,0 Z"/></g></g><g class="arrow-line"><path class="connection real" stroke-dasharray="" d="  M124.93,22.23 L128.14,11.68" style="stroke: rgb(153, 0, 0); stroke-opacity: 1; stroke-width: 2; fill: none; fill-opacity: 1;"/><g stroke="none" fill="rgb(153,0,0)" fill-opacity="1" transform="matrix(-0.29053519369775654,0.9568643065884562,-0.9568643065884562,-0.29053519369775654,129.3000030517578,7.849998474121094)" style="stroke: none; fill: rgb(153, 0, 0); stroke-width: 2;"><path d=" M13.4,-6.43 L0,0 L13.4,6.44 L8.9,0 Z"/></g></g><g/></g><g/><g/><g/></svg>
        <svg xmlns="http://www.w3.org/2000/svg" xmlns:xlink="http://www.w3.org/1999/xlink" width="200" height="194.1999969482422" style="width:200px;height:194.1999969482422px;font-family:Asana-Math, Asana;background:transparent;"><g><g><g><g transform="matrix(1,0,0,1,176.79998779296875,182.89999389648438)"><path transform="matrix(0.015,0,0,-0.015,0,0)" d="M19 400L104 400L104 124C104 1 197 -11 233 -11C304 -11 332 60 332 124L332 181L307 181L307 126C307 52 277 14 240 14C173 14 173 105 173 122L173 400L316 400L316 431L173 431L173 615L148 615C147 533 117 426 19 422Z" stroke="rgb(0,0,0)" stroke-opacity="1" stroke-width="8" fill="rgb(0,0,0)" fill-opacity="1"></path></g></g></g></g><g><g><g><g transform="matrix(1,0,0,1,19.79998779296875,24.899993896484375)"><path transform="matrix(0.015,0,0,-0.015,0,0)" d="M345 0C371 2 402 3 428 3C457 3 499 1 523 0L523 31C501 34 494 47 494 62C494 84 523 117 584 189L660 89C668 78 681 62 681 56C681 47 672 32 645 31L645 0C675 1 731 3 753 3C780 3 819 2 849 0L849 31C795 31 777 33 754 62L620 235C650 273 688 322 712 348C743 384 784 399 831 400L831 431C805 429 775 428 749 428C719 428 666 430 653 431L653 400C674 398 682 385 682 369C682 353 672 340 667 334L605 256L527 357C518 367 518 369 518 375C518 390 533 399 553 400L553 431C527 430 461 428 445 428C424 428 377 429 350 431L350 400C420 400 421 399 468 339L567 210L473 91C425 33 366 31 345 31Z" stroke="rgb(0,0,0)" stroke-opacity="1" stroke-width="8" fill="rgb(0,0,0)" fill-opacity="1"></path></g></g></g></g></svg>
</svg>
